src/img/iconos/icon3LM.svg

<svg width="380" height="380" viewBox="0 0 380 380" fill="none" xmlns="http://www.w3.org/2000/svg">
<path d="M16.3008 290.31V301.59C16.3008 311.35 19.0208 314.09 28.6708 314.09H351.261C352.631 314.09 354.011 314.15 355.371 314.03C359.311 313.66 362.941 311.03 363.281 307.23C363.771 301.61 363.401 295.91 363.401 290.31H16.3008ZM69.0008 308.09C63.3908 308.09 57.7808 308.09 52.1608 308.09C46.5408 308.09 41.1608 308.09 35.6908 308.09C31.0208 308.09 28.2708 305.76 28.3308 302.02C28.3908 298.28 31.0408 296.15 35.5108 296.13C46.7308 296.13 57.9575 296.13 69.1908 296.13C73.5508 296.13 76.1908 298.56 76.1908 302.19C76.1908 305.82 73.4108 308.06 69.0008 308.09ZM93.7708 308.09C93.0208 308.09 92.2708 308.09 91.5308 308.09V308C90.1634 308.12 88.7881 308.12 87.4208 308C84.2008 307.41 82.2608 305.4 82.2808 302.08C82.3008 298.76 84.2808 296.71 87.4908 296.24C89.6008 296.023 91.726 295.996 93.8408 296.16C97.6608 296.31 100.171 298.76 100.141 302.16C100.111 305.56 97.5708 307.89 93.7508 308.09H93.7708Z" fill="#F24E1E"/>
<path d="M27.5303 326.07H141C139.64 334.28 138.34 342.07 137 350.07C128.77 350.07 120.92 350.02 113.07 350.07C108.41 350.07 106.25 352.32 106.18 357C106.12 360.58 106.18 364.16 106.18 368H102.46C95.7203 368 88.9803 367.91 82.2503 368.05C81.4646 368.027 80.6823 368.163 79.9506 368.45C79.2188 368.737 78.5527 369.169 77.9922 369.721C77.4317 370.272 76.9885 370.93 76.6892 371.657C76.3898 372.384 76.2405 373.164 76.2503 373.95C76.2503 377.22 78.6303 379.66 82.1803 379.95C83.0503 380.02 83.9303 379.95 84.8003 379.95H295.16C296.16 380 297.161 380 298.16 379.95C299.671 379.854 301.09 379.191 302.132 378.093C303.174 376.995 303.763 375.544 303.78 374.03C303.8 372.512 303.231 371.045 302.193 369.937C301.154 368.83 299.727 368.167 298.21 368.09C295.85 367.9 293.47 368.02 291.1 368.02H273.85C273.85 364.63 273.85 361.77 273.85 358.91C273.85 351.73 272.2 350.05 265.12 350.05H243C241.66 341.93 240.39 334.22 239 326.05H352.42C367.14 326.05 375.67 317.55 375.68 302.86V85.74C375.68 71 367.19 62.5 352.48 62.5H27.5503C12.8203 62.5 4.32031 71 4.32031 85.7V302.84C4.32031 317.56 12.8203 326.07 27.5303 326.07ZM261.7 362.26V367.81H118.28V362.26H261.7ZM149.22 349.86C150.53 341.92 151.8 334.22 153.13 326.19H226.85C228.16 334.04 229.45 341.84 230.78 349.86H149.22ZM363.28 307.23C362.94 311.06 359.28 313.66 355.37 314.03C354.01 314.15 352.63 314.09 351.26 314.09H28.6703C19.0203 314.09 16.3003 311.35 16.3003 301.59V290.31H363.4C363.4 295.91 363.77 301.61 363.28 307.23ZM16.2803 274.05V86.14C16.2803 77.49 19.2803 74.48 27.9903 74.48H352.13C360.57 74.48 363.7 77.57 363.7 85.91V277.85H16.3003L16.2803 274.05Z" fill="#333333"/>
<path d="M69.1696 296.14C57.9362 296.087 46.7096 296.087 35.4896 296.14C31.0196 296.14 28.3696 298.39 28.3096 302.03C28.2496 305.67 30.9996 308.08 35.6696 308.1C41.1596 308.1 46.6696 308.1 52.1396 308.1C57.6096 308.1 63.3696 308.1 68.9796 308.1C73.4096 308.1 76.0996 305.82 76.1596 302.21C76.2196 298.6 73.5296 296.15 69.1696 296.14Z" fill="#333333"/>
<path d="M93.8201 296.15C91.7053 295.986 89.5801 296.013 87.4701 296.23C84.2301 296.7 82.2901 298.76 82.2601 302.07C82.2301 305.38 84.1801 307.4 87.4001 307.99C88.7675 308.11 90.1427 308.11 91.5101 307.99V308.05C92.2501 308.05 93.0001 308.05 93.7501 308.05C97.5701 307.85 100.1 305.49 100.12 302.1C100.14 298.71 97.6401 296.3 93.8201 296.15Z" fill="#333333"/>
<path d="M189.711 86.5499C140.611 86.5499 100.371 126.81 100.321 175.98C100.286 187.803 102.589 199.517 107.096 210.448C111.603 221.379 118.226 231.311 126.583 239.675C134.941 248.038 144.869 254.667 155.797 259.182C166.725 263.696 178.437 266.006 190.261 265.98C239.391 265.98 279.671 225.67 279.681 176.55C279.706 164.726 277.396 153.014 272.884 142.086C268.372 131.157 261.746 121.227 253.387 112.865C245.028 104.503 235.1 97.8742 224.173 93.3584C213.245 88.8426 201.534 86.5289 189.711 86.5499ZM184.141 99.2299V170.41H155.871C157.241 160.75 158.201 151.27 159.991 141.96C162.211 130.47 166.051 119.47 172.731 109.69C175.631 105.44 179.001 101.62 184.141 99.2299ZM163.761 102.72C157.142 112.586 152.502 123.644 150.101 135.28C147.761 146.8 146.241 158.47 144.291 170.45H112.001C113.491 138.36 137.831 110.51 163.761 102.72ZM127.621 223.72C118.405 211.644 112.902 197.149 111.781 182H145.131C146.491 205.73 150.291 228.81 163.461 249.33C155.451 249.23 136.651 235.77 127.621 223.76V223.72ZM184.141 253.8C181.301 251.44 178.621 249.67 176.491 247.39C169.491 239.88 165.701 230.62 162.681 221C158.681 208.38 156.981 195.4 156.501 182H184.141V253.8ZM195.841 99.1499C201.001 101.6 204.411 105.39 207.271 109.67C215.431 121.83 219.271 135.57 221.511 149.83C222.511 156.57 223.041 163.4 223.811 170.42H195.811L195.841 99.1499ZM195.771 253.3V182H223.651C223.171 187.36 222.871 192.65 222.201 197.9C220.321 212.55 216.831 226.75 209.261 239.64C206.001 245.21 202.121 250.21 195.771 253.34V253.3ZM216.201 249.81C222.815 239.935 227.46 228.876 229.881 217.24C232.221 205.73 233.741 194.05 235.701 181.97H267.941C267.001 211.26 244.821 240.82 216.201 249.85V249.81ZM234.861 170.4C233.501 146.68 229.691 123.52 216.351 102.76C240.741 109.76 266.241 136.87 268.071 170.4H234.861Z" fill="#333333"/>
</svg>

<svg id="Capa_1" data-name="Capa 1" xmlns="http://www.w3.org/2000/svg" viewBox="0 0 380 380"><defs><style>.cls-1{fill:none;}.cls-2{fill:#006c9c;}.cls-3{fill:#333;}</style></defs><path class="cls-1" d="M363.7,274.19V85.91c0-8.34-3.13-11.43-11.57-11.43H28c-8.68,0-11.71,3-11.71,11.66V277.85H363.7Zm-173.44-8.25a89.74,89.74,0,0,1-89.94-90c.05-49.17,40.29-89.43,89.39-89.43a89.81,89.81,0,0,1,90,90C279.67,225.63,239.39,265.91,190.26,265.94Z"/><path class="cls-1" d="M150.1,135.28a91.72,91.72,0,0,1,13.66-32.56c-25.93,7.79-50.27,35.64-51.79,67.73h32.32C146.24,158.47,147.76,146.8,150.1,135.28Z"/><path class="cls-1" d="M162.68,221c3,9.62,6.83,18.88,13.81,26.39,2.13,2.28,4.81,4,7.65,6.41V182.05H156.5C157,195.44,158.72,208.42,162.68,221Z"/><path class="cls-1" d="M111.78,182a78.29,78.29,0,0,0,15.84,41.73c9,12,27.83,25.47,35.84,25.6-13.17-20.52-17-43.6-18.33-67.33Z"/><path class="cls-1" d="M216.35,102.8c13.34,20.76,17.15,43.92,18.51,67.64h33.21C266.24,136.91,240.74,109.83,216.35,102.8Z"/><path class="cls-1" d="M155.87,170.41h28.27V99.23c-5.14,2.39-8.51,6.21-11.41,10.46-6.68,9.78-10.52,20.78-12.74,32.27C158.2,151.27,157.24,160.75,155.87,170.41Z"/><path class="cls-1" d="M221.51,149.87c-2.22-14.26-6.08-28-14.24-40.16-2.86-4.28-6.27-8.07-11.43-10.52v71.27h28C223,163.44,222.55,156.61,221.51,149.87Z"/><path class="cls-1" d="M223.65,182H195.77v71.31c6.35-3.13,10.24-8.13,13.49-13.67,7.57-12.89,11.06-27.09,12.94-41.74C222.87,192.68,223.17,187.39,223.65,182Z"/><path class="cls-1" d="M229.88,217.28a92.31,92.31,0,0,1-13.68,32.57c28.62-9,50.77-38.59,51.74-67.84H235.7C233.74,194.09,232.22,205.77,229.88,217.28Z"/><path class="cls-2" d="M16.3,290.31v11.28c0,9.76,2.72,12.5,12.37,12.5H351.26c1.37,0,2.75.06,4.11-.06,3.94-.37,7.57-3,7.91-6.8.49-5.62.12-11.32.12-16.92ZM69,308.09c-5.61,0-11.22,0-16.84,0s-11,0-16.47,0c-4.67,0-7.42-2.33-7.36-6.07s2.71-5.87,7.18-5.89q16.83,0,33.68,0c4.36,0,7,2.43,7,6.06S73.41,308.06,69,308.09Zm24.77,0c-.75,0-1.5,0-2.24,0V308a23.46,23.46,0,0,1-4.11,0c-3.22-.59-5.16-2.6-5.14-5.92s2-5.37,5.21-5.84a35.41,35.41,0,0,1,6.35-.08c3.82.15,6.33,2.6,6.3,6S97.57,307.89,93.75,308.09Z"/><path class="cls-3" d="M27.53,326.07H141c-1.36,8.21-2.66,16-4,24-8.23,0-16.08-.05-23.93,0-4.66,0-6.82,2.25-6.89,6.93-.06,3.58,0,7.16,0,11h-3.72c-6.74,0-13.48-.09-20.21.05a5.83,5.83,0,0,0-6,5.9c0,3.27,2.38,5.71,5.93,6,.87.07,1.75,0,2.62,0H295.16a29.79,29.79,0,0,0,3,0,6,6,0,0,0,5.62-5.92,5.87,5.87,0,0,0-5.57-5.94c-2.36-.19-4.74-.07-7.11-.07H273.85c0-3.39,0-6.25,0-9.11,0-7.18-1.65-8.86-8.73-8.86H243c-1.34-8.12-2.61-15.83-4-24H352.42c14.72,0,23.25-8.5,23.26-23.19V85.74c0-14.74-8.49-23.24-23.2-23.24H27.55C12.82,62.5,4.32,71,4.32,85.7V302.84C4.32,317.56,12.82,326.07,27.53,326.07ZM261.7,362.26v5.55H118.28v-5.55Zm-112.48-12.4c1.31-7.94,2.58-15.64,3.91-23.67h73.72c1.31,7.85,2.6,15.65,3.93,23.67Zm214.06-42.63c-.34,3.83-4,6.43-7.91,6.8-1.36.12-2.74.06-4.11.06H28.67c-9.65,0-12.37-2.74-12.37-12.5V290.31H363.4C363.4,295.91,363.77,301.61,363.28,307.23Zm-347-33.18V86.14c0-8.65,3-11.66,11.71-11.66H352.13c8.44,0,11.57,3.09,11.57,11.43V277.85H16.3Z"/><path class="cls-3" d="M69.17,296.14q-16.85-.08-33.68,0c-4.47,0-7.12,2.25-7.18,5.89s2.69,6.05,7.36,6.07c5.49,0,11,0,16.47,0s11.23,0,16.84,0c4.43,0,7.12-2.28,7.18-5.89S73.53,296.15,69.17,296.14Z"/><path class="cls-3" d="M93.82,296.15a35.41,35.41,0,0,0-6.35.08c-3.24.47-5.18,2.53-5.21,5.84s1.92,5.33,5.14,5.92a23.46,23.46,0,0,0,4.11,0v.06c.74,0,1.49,0,2.24,0,3.82-.2,6.35-2.56,6.37-5.95S97.64,296.3,93.82,296.15Z"/><path class="cls-3" d="M189.71,86.55c-49.1,0-89.34,40.26-89.39,89.43a89.74,89.74,0,0,0,89.94,90c49.13,0,89.41-40.31,89.42-89.43A89.81,89.81,0,0,0,189.71,86.55Zm-5.57,12.68v71.18H155.87c1.37-9.66,2.33-19.14,4.12-28.45,2.22-11.49,6.06-22.49,12.74-32.27C175.63,105.44,179,101.62,184.14,99.23Zm-20.38,3.49a91.72,91.72,0,0,0-13.66,32.56c-2.34,11.52-3.86,23.19-5.81,35.17H112C113.49,138.36,137.83,110.51,163.76,102.72Zm-36.14,121A78.29,78.29,0,0,1,111.78,182h33.35c1.36,23.73,5.16,46.81,18.33,67.33C155.45,249.23,136.65,235.77,127.62,223.76Zm56.52,30.08c-2.84-2.36-5.52-4.13-7.65-6.41-7-7.51-10.79-16.77-13.81-26.39-4-12.62-5.7-25.6-6.18-39h27.64Zm11.7-154.65c5.16,2.45,8.57,6.24,11.43,10.52,8.16,12.16,12,25.9,14.24,40.16,1,6.74,1.53,13.57,2.3,20.59h-28Zm-.07,154.15V182h27.88c-.48,5.36-.78,10.65-1.45,15.9-1.88,14.65-5.37,28.85-12.94,41.74C206,245.21,202.12,250.21,195.77,253.34Zm20.43-3.49a92.31,92.31,0,0,0,13.68-32.57c2.34-11.51,3.86-23.19,5.82-35.27h32.24C267,211.26,244.82,240.82,216.2,249.85Zm18.66-79.41c-1.36-23.72-5.17-46.88-18.51-67.64,24.39,7,49.89,34.11,51.72,67.64Z"/></svg>
